packages/core/src/svgs/mdt.svg

<svg width="24" height="24" viewBox="0 0 24 24" fill="none" xmlns="http://www.w3.org/2000/svg">
<g clip-path="url(#clip0_31_13619)">
<path d="M0 0H24V24H0V0Z" fill="#57B9FF"/>
<path d="M11.863 5.18575L7.28582 7.95432C7.45296 8.09575 7.61582 8.47718 7.64582 8.56289L11.5715 6.15432V9.06432C11.5715 9.2186 11.7772 9.42432 12.0001 9.4286C12.223 9.4286 12.4287 9.21432 12.4287 9.06432V6.15432L16.363 8.57146C16.4272 8.38289 16.6501 8.03146 16.7144 7.96718C15.2191 7.02093 13.7118 6.09371 12.193 5.18575C12.0215 5.11718 11.9015 5.15575 11.863 5.18575ZM11.863 18.8143L7.28582 16.0457C7.44312 15.8674 7.56526 15.6609 7.64582 15.4372L11.5715 17.8457V14.9357C11.5715 14.7815 11.7772 14.5757 12.0001 14.5715C12.223 14.5715 12.4287 14.7857 12.4287 14.9357V17.8457L16.363 15.4286C16.4272 15.6172 16.6501 15.9686 16.7144 16.0329C15.2191 16.9791 13.7118 17.9064 12.193 18.8143C12.0215 18.8829 11.9015 18.8443 11.863 18.8143ZM5.57153 13.9286V10.0886C6.0601 10.2515 6.63439 10.1572 6.85725 10.0886V13.9286C6.43853 13.7986 5.99025 13.7986 5.57153 13.9286ZM17.143 13.9286V10.0886C17.6315 10.2515 18.2058 10.1572 18.4287 10.0886V13.9286C18.01 13.7986 17.5617 13.7986 17.143 13.9286ZM11.1601 12.42L7.09725 9.98575C7.43554 9.70386 7.66822 9.31557 7.75725 8.88432L11.8201 11.3186C11.4706 11.5908 11.2353 11.9835 11.1601 12.42ZM12.8915 12.42L16.9587 9.98575C16.6204 9.70386 16.3877 9.31557 16.2987 8.88432L12.2315 11.3186C12.7115 11.7043 12.8744 12.2143 12.8915 12.42Z" fill="#BBE3FF"/>
<path d="M17.7858 9.85721C18.3775 9.85721 18.8572 9.37752 18.8572 8.78578C18.8572 8.19405 18.3775 7.71436 17.7858 7.71436C17.1941 7.71436 16.7144 8.19405 16.7144 8.78578C16.7144 9.37752 17.1941 9.85721 17.7858 9.85721Z" fill="white"/>
<path d="M17.7858 16.2859C18.3775 16.2859 18.8572 15.8062 18.8572 15.2145C18.8572 14.6228 18.3775 14.1431 17.7858 14.1431C17.1941 14.1431 16.7144 14.6228 16.7144 15.2145C16.7144 15.8062 17.1941 16.2859 17.7858 16.2859Z" fill="white"/>
<path d="M6.21425 16.2859C6.80598 16.2859 7.28568 15.8062 7.28568 15.2145C7.28568 14.6228 6.80598 14.1431 6.21425 14.1431C5.62252 14.1431 5.14282 14.6228 5.14282 15.2145C5.14282 15.8062 5.62252 16.2859 6.21425 16.2859Z" fill="white"/>
<path d="M6.21425 9.85721C6.80598 9.85721 7.28568 9.37752 7.28568 8.78578C7.28568 8.19405 6.80598 7.71436 6.21425 7.71436C5.62252 7.71436 5.14282 8.19405 5.14282 8.78578C5.14282 9.37752 5.62252 9.85721 6.21425 9.85721Z" fill="white"/>
<path d="M11.9914 13.0799C12.5831 13.0799 13.0628 12.6002 13.0628 12.0084C13.0628 11.4167 12.5831 10.937 11.9914 10.937C11.3996 10.937 10.9199 11.4167 10.9199 12.0084C10.9199 12.6002 11.3996 13.0799 11.9914 13.0799Z" fill="white"/>
</g>
<defs>
<clipPath id="clip0_31_13619">
<rect width="24" height="24" fill="white"/>
</clipPath>
</defs>
</svg>

<svg xmlns="http://www.w3.org/2000/svg" width="24" height="24" fill="none" viewBox="0 0 24 24"><g clip-path="url(#a)"><path fill="#57B9FF" d="M0 0h24v24H0z"/><path fill="#BBE3FF" d="M11.863 5.186 7.286 7.954c.167.142.33.523.36.609l3.926-2.409v2.91c0 .155.205.36.428.365.223 0 .429-.215.429-.365v-2.91l3.934 2.417a2.6 2.6 0 0 1 .351-.604 209 209 0 0 0-4.521-2.781c-.171-.069-.291-.03-.33 0m0 13.628-4.577-2.768c.157-.179.28-.385.36-.609l3.926 2.409v-2.91c0-.155.205-.36.428-.364.223 0 .429.214.429.364v2.91l3.934-2.417c.064.188.287.54.351.604a209 209 0 0 1-4.521 2.781c-.171.069-.291.03-.33 0M5.572 13.93v-3.84c.488.162 1.062.068 1.285 0v3.84a2.17 2.17 0 0 0-1.285 0m11.571 0v-3.84c.488.162 1.063.068 1.286 0v3.84a2.17 2.17 0 0 0-1.286 0M11.16 12.42 7.097 9.986c.339-.282.571-.67.66-1.102l4.063 2.435c-.35.272-.585.664-.66 1.101m1.732 0 4.067-2.434a1.95 1.95 0 0 1-.66-1.102l-4.067 2.435c.48.385.642.895.66 1.101"/><path fill="#fff" d="M17.786 9.857a1.071 1.071 0 1 0 0-2.143 1.071 1.071 0 0 0 0 2.143M17.786 16.286a1.071 1.071 0 1 0 0-2.143 1.071 1.071 0 0 0 0 2.143M6.214 16.286a1.071 1.071 0 1 0 0-2.143 1.071 1.071 0 0 0 0 2.143M6.214 9.857a1.071 1.071 0 1 0 0-2.143 1.071 1.071 0 0 0 0 2.143M11.991 13.08a1.071 1.071 0 1 0 0-2.143 1.071 1.071 0 0 0 0 2.143"/></g><defs><clipPath id="a"><path fill="#fff" d="M0 0h24v24H0z"/></clipPath></defs></svg>
